SVG_Azure_Grouped/Endpoint/Intune Device Enrolment.svg

<?xml version="1.0" encoding="UTF-8" standalone="no"?>
<!-- Generated by Microsoft Visio, SVG Export Intune Device Enrolment.svg Page-1 -->

<svg
   xmlns:dc="http://purl.org/dc/elements/1.1/"
   xmlns:cc="http://creativecommons.org/ns#"
   xmlns:rdf="http://www.w3.org/1999/02/22-rdf-syntax-ns#"
   xmlns:svg="http://www.w3.org/2000/svg"
   xmlns="http://www.w3.org/2000/svg"
   xmlns:xlink="http://www.w3.org/1999/xlink"
   xmlns:sodipodi="http://sodipodi.sourceforge.net/DTD/sodipodi-0.dtd"
   xmlns:inkscape="http://www.inkscape.org/namespaces/inkscape"
   width="0.78744328in"
   height="0.70872545in"
   viewBox="0 0 56.695784 51.028198"
   xml:space="preserve"
   class="st9"
   version="1.1"
   id="svg83"
   sodipodi:docname="Intune Device Enrolment.svg"
   style="font-size:12px;overflow:visible;color-interpolation-filters:sRGB;fill:none;fill-rule:evenodd;stroke-linecap:square;stroke-miterlimit:3"
   inkscape:version="0.92.5 (2060ec1f9f, 2020-04-08)"><metadata
   id="metadata87"><rdf:RDF><cc:Work
       rdf:about=""><dc:format>image/svg+xml</dc:format><dc:type
         rdf:resource="http://purl.org/dc/dcmitype/StillImage" /></cc:Work></rdf:RDF></metadata><sodipodi:namedview
   pagecolor="#ffffff"
   bordercolor="#666666"
   borderopacity="1"
   objecttolerance="10"
   gridtolerance="10"
   guidetolerance="10"
   inkscape:pageopacity="0"
   inkscape:pageshadow="2"
   inkscape:window-width="640"
   inkscape:window-height="480"
   id="namedview85"
   showgrid="false"
   inkscape:zoom="1.523943"
   inkscape:cx="37.795229"
   inkscape:cy="32.082148"
   inkscape:window-x="0"
   inkscape:window-y="0"
   inkscape:window-maximized="0"
   inkscape:current-layer="svg83" />
	<style
   type="text/css"
   id="style2">
	<![CDATA[
		.st1 {fill:#0078d4;stroke:none;stroke-linecap:butt;stroke-width:31.1071}
		.st2 {fill:url(#grad0-8);stroke:none;stroke-linecap:butt;stroke-width:31.1071}
		.st3 {fill:url(#grad0-12);stroke:none;stroke-linecap:butt;stroke-width:31.1071}
		.st4 {fill:#f2f2f2;stroke:none;stroke-linecap:butt;stroke-width:31.1071}
		.st5 {fill:none;stroke:none;stroke-linecap:butt;stroke-width:31.1071}
		.st6 {fill:url(#grad0-8);stroke:none;stroke-linecap:butt;stroke-width:23.451}
		.st7 {fill:#76bc2d;stroke:none;stroke-linecap:butt;stroke-width:31.1071}
		.st8 {fill:#ffffff;stroke:none;stroke-linecap:butt;stroke-width:31.1071}
		.st9 {fill:none;fill-rule:evenodd;font-size:12px;overflow:visible;stroke-linecap:square;stroke-miterlimit:3}
	]]>
	</style>

	<defs
   id="Patterns_And_Gradients">
		<linearGradient
   id="grad0-8"
   x1="0"
   y1="0"
   x2="1"
   y2="0"
   gradientTransform="rotate(-90,0.5,0.5)">
			<stop
   offset="0"
   stop-color="#d2ebff"
   stop-opacity="1"
   id="stop4" />
			<stop
   offset="1"
   stop-color="#f0fffd"
   stop-opacity="1"
   id="stop6" />
		</linearGradient>
		<linearGradient
   id="grad0-12"
   x1="-0.006354946"
   y1="57.600387"
   x2="31.585749"
   y2="57.600387"
   gradientTransform="scale(0.76790581,1.302243)"
   gradientUnits="userSpaceOnUse">
			<stop
   offset="0"
   stop-color="#0078d4"
   stop-opacity="1"
   id="stop9" />
			<stop
   offset="0.17"
   stop-color="#1c84dc"
   stop-opacity="1"
   id="stop11" />
			<stop
   offset="0.38"
   stop-color="#3990e4"
   stop-opacity="1"
   id="stop13" />
			<stop
   offset="0.59"
   stop-color="#4d99ea"
   stop-opacity="1"
   id="stop15" />
			<stop
   offset="0.8"
   stop-color="#5a9eee"
   stop-opacity="1"
   id="stop17" />
			<stop
   offset="1"
   stop-color="#5ea0ef"
   stop-opacity="1"
   id="stop19" />
		</linearGradient>
	<linearGradient
   inkscape:collect="always"
   xlink:href="#grad0-8"
   id="linearGradient4597"
   gradientTransform="scale(1.1984373,0.83441999)"
   x1="-0.0040719695"
   y1="100.45265"
   x2="38.74212"
   y2="100.45265"
   gradientUnits="userSpaceOnUse" /><linearGradient
   inkscape:collect="always"
   xlink:href="#grad0-8"
   id="linearGradient4599"
   gradientTransform="scale(0.77161781,1.2959784)"
   x1="-0.0014774153"
   y1="64.206318"
   x2="25.415613"
   y2="64.206318"
   gradientUnits="userSpaceOnUse" /></defs>
	<g
   id="g81"
   transform="translate(-31.107197,-31.1064)">
		<title
   id="title23">Page-1</title>
		<g
   id="group19964-1"
   transform="translate(31.1071,-34.0157)">
			<title
   id="title25">Intune Device Enrolment.19964</title>
			<g
   id="group19965-2">
				<title
   id="title27">layer1</title>
				<g
   id="shape19966-3"
   transform="translate(0,-13.0279)">
					<title
   id="title29">rect25</title>
					<path
   d="m 0,114.23 a 1.8898,1.92064 -180 0 0 1.89,1.92 h 48.76 a 1.8898,1.92064 -180 0 0 1.89,-1.92 V 80.07 A 1.8898,1.92064 -180 0 0 50.65,78.15 H 1.89 A 1.8898,1.92064 -180 0 0 0,80.07 Z"
   class="st1"
   id="path31"
   inkscape:connector-curvature="0"
   style="fill:#0078d4;stroke:none;stroke-width:31.10709953;stroke-linecap:butt" />
				</g>
				<g
   id="shape19967-5"
   transform="translate(3.0552,-16.0368)">
					<title
   id="title34">rect27</title>
					<path
   d="m 0,115.19 a 0.944902,0.960319 -180 0 0 0.94488,0.9603 L 45.48,116.15 a 0.944902,0.960319 -180 0 0 0.94488,-0.9603 L 46.43,84.78 A 0.944902,0.960319 -180 0 0 45.48512,83.819703 L 0.94,83.82 a 0.944902,0.960319 -180 0 0 -0.94488,0.960297 z"
   class="st2"
   id="path36"
   inkscape:connector-curvature="0"
   style="fill:url(#linearGradient4597);stroke:none;stroke-width:31.10709953;stroke-linecap:butt" />
				</g>
				<g
   id="shape19968-9"
   transform="translate(32.441)">
					<title
   id="title39">rect29</title>
					<path
   d="m 0,115.19 a 0.944902,0.960319 -180 0 0 0.94488,0.9603 L 23.31,116.15 a 0.944902,0.960319 -180 0 0 0.94488,-0.9603 L 24.25,75.97 A 0.944902,0.960319 -180 0 0 23.30512,75.009703 L 0.94,75.01 a 0.944902,0.960319 -180 0 0 -0.94488,0.960297 z"
   class="st3"
   id="path41"
   inkscape:connector-curvature="0"
   style="fill:url(#grad0-12);stroke:none;stroke-width:31.10709953;stroke-linecap:butt" />
				</g>
				<g
   id="shape19969-13"
   transform="translate(41.7951,-38.9881)">
					<title
   id="title44">rect31</title>
					<path
   d="m 0,115.79 a 0.346464,0.352117 -180 0 0 0.346456,0.35211 L 5.23,116.15 a 0.346464,0.352117 -180 0 0 0.346456,-0.35211 L 5.57,115.73 A 0.346464,0.352117 -180 0 0 5.223544,115.37789 L 0.35,115.38 a 0.346464,0.352117 -180 0 0 -0.346456,0.35211 z"
   class="st4"
   id="path46"
   inkscape:connector-curvature="0"
   style="fill:#f2f2f2;stroke:none;stroke-width:31.10709953;stroke-linecap:butt" />
				</g>
				<g
   id="shape19970-15"
   transform="translate(34.7402,-4.60941)">
					<title
   id="title49">rect33</title>
					<path
   d="m 0,115.7 a 0.440954,0.448149 -180 0 0 0.440944,0.44814 L 19.24,116.15 a 0.440954,0.448149 -180 0 0 0.440944,-0.44814 L 19.68,83.53 A 0.440954,0.448149 -180 0 0 19.239056,83.081862 L 0.44,83.08 a 0.440954,0.448149 -180 0 0 -0.440944,0.448138 z"
   class="st5"
   id="path51"
   inkscape:connector-curvature="0"
   style="fill:none;stroke:none;stroke-width:31.10709953;stroke-linecap:butt" />
				</g>
				<g
   id="shape19971-17"
   transform="translate(23.5591,-49.0711)">
					<title
   id="title54">rect35</title>
					<path
   d="m 0,115.79 a 0.346464,0.352117 -180 0 0 0.346456,0.35211 L 5.23,116.15 a 0.346464,0.352117 -180 0 0 0.346456,-0.35211 L 5.57,115.73 A 0.346464,0.352117 -180 0 0 5.223544,115.37789 L 0.35,115.38 a 0.346464,0.352117 -180 0 0 -0.346456,0.35211 z"
   class="st4"
   id="path56"
   inkscape:connector-curvature="0"
   style="fill:#f2f2f2;stroke:none;stroke-width:31.10709953;stroke-linecap:butt" />
				</g>
				<g
   id="shape19972-19"
   transform="translate(43.2127,-0.896177)">
					<title
   id="title59">rect41</title>
					<path
   d="m 0,115.51 a 0.629934,0.640213 -180 0 0 0.62992,0.6402 L 2.08,116.15 a 0.629934,0.640213 -180 0 0 0.62992,-0.6402 L 2.71,114.45 A 0.629934,0.640213 -180 0 0 2.08008,113.8098 L 0.63,113.81 A 0.629934,0.640213 -180 0 0 8e-5,114.4502 Z"
   class="st4"
   id="path61"
   inkscape:connector-curvature="0"
   style="fill:#f2f2f2;stroke:none;stroke-width:31.10709953;stroke-linecap:butt" />
				</g>
				<g
   id="shape19973-21"
   transform="translate(34.7402,-4.60942)">
					<title
   id="title64">rect30</title>
					<path
   d="m 0,115.69 a 0.45115,0.458511 -180 0 0 0.45114,0.4585 L 19.16,116.15 a 0.45115,0.458511 -180 0 0 0.45114,-0.4585 L 19.61,83.67 A 0.45115,0.458511 -180 0 0 19.15886,83.211499 L 0.45,83.21 a 0.45115,0.458511 -180 0 0 -0.45114,0.458501 z"
   class="st6"
   id="path66"
   inkscape:connector-curvature="0"
   style="fill:url(#linearGradient4599);stroke:none;stroke-width:23.45100021;stroke-linecap:butt" />
				</g>
				<g
   id="shape19974-24"
   transform="translate(10.6389,-0.108042)">
					<title
   id="title69">rect37</title>
					<path
   d="m 0,102.73 a 13.1971,13.4125 -180 0 0 13.2,13.42 h 0.12 a 13.1971,13.4125 -180 0 0 13.2,-13.42 v -0.12 A 13.1971,13.4125 -180 0 0 13.32,89.19 H 13.2 A 13.1971,13.4125 -180 0 0 0,102.61 Z"
   class="st7"
   id="path71"
   inkscape:connector-curvature="0"
   style="fill:#76bc2d;stroke:none;stroke-width:31.10709953;stroke-linecap:butt" />
				</g>
				<g
   id="shape19975-26"
   transform="translate(14.419,-4.07698)">
					<title
   id="title74">path39</title>
					<path
   d="m 17.45,104.88 h -6.3 v -6.4 A 1.48031,1.50446 -180 0 0 9.73,97.16 h -0.5 a 1.48031,1.50446 -180 0 0 -1.48,1.51 v 6.4 H 1.45 A 1.48031,1.50446 -180 0 0 0,106.58 v 0.19 a 1.48031,1.50446 -180 0 0 1.45,1.5 h 6.3 v 6.4 a 1.48031,1.50446 -180 0 0 1.48,1.48 h 0.5 a 1.48031,1.50446 -180 0 0 1.48,-1.48 v -6.4 h 6.3 a 1.48031,1.50446 -180 0 0 1.48,-1.5 v -0.51 a 1.48031,1.50446 -180 0 0 -1.54,-1.38 z"
   class="st8"
   id="path76"
   inkscape:connector-curvature="0"
   style="fill:#ffffff;stroke:none;stroke-width:31.10709953;stroke-linecap:butt" />
				</g>
			</g>
		</g>
	</g>
</svg>

<?xml version="1.0" encoding="UTF-8" standalone="no"?>
<!DOCTYPE svg PUBLIC "-//W3C//DTD SVG 1.1//EN" "http://www.w3.org/Graphics/SVG/1.1/DTD/svg11.dtd">
<!-- Generated by Microsoft Visio, SVG Export Intune Device Enrolment.svg Page-1 -->
<svg xmlns="http://www.w3.org/2000/svg" xmlns:xlink="http://www.w3.org/1999/xlink" xmlns:ev="http://www.w3.org/2001/xml-events"
		width="1.65149in" height="1.61314in" viewBox="0 0 118.907 116.146" xml:space="preserve" color-interpolation-filters="sRGB"
		class="st9">
	<style type="text/css">
	<![CDATA[
		.st1 {fill:#0078d4;stroke:none;stroke-linecap:butt;stroke-width:31.1071}
		.st2 {fill:url(#grad0-8);stroke:none;stroke-linecap:butt;stroke-width:31.1071}
		.st3 {fill:url(#grad0-12);stroke:none;stroke-linecap:butt;stroke-width:31.1071}
		.st4 {fill:#f2f2f2;stroke:none;stroke-linecap:butt;stroke-width:31.1071}
		.st5 {fill:none;stroke:none;stroke-linecap:butt;stroke-width:31.1071}
		.st6 {fill:url(#grad0-8);stroke:none;stroke-linecap:butt;stroke-width:23.451}
		.st7 {fill:#76bc2d;stroke:none;stroke-linecap:butt;stroke-width:31.1071}
		.st8 {fill:#ffffff;stroke:none;stroke-linecap:butt;stroke-width:31.1071}
		.st9 {fill:none;fill-rule:evenodd;font-size:12px;overflow:visible;stroke-linecap:square;stroke-miterlimit:3}
	]]>
	</style>

	<defs id="Patterns_And_Gradients">
		<linearGradient id="grad0-8" x1="0" y1="0" x2="1" y2="0" gradientTransform="rotate(-90 0.5 0.5)">
			<stop offset="0" stop-color="#d2ebff" stop-opacity="1"/>
			<stop offset="1" stop-color="#f0fffd" stop-opacity="1"/>
		</linearGradient>
		<linearGradient id="grad0-12" x1="0" y1="0" x2="1" y2="0" gradientTransform="rotate(-90 0.5 0.5)">
			<stop offset="0" stop-color="#0078d4" stop-opacity="1"/>
			<stop offset="0.17" stop-color="#1c84dc" stop-opacity="1"/>
			<stop offset="0.38" stop-color="#3990e4" stop-opacity="1"/>
			<stop offset="0.59" stop-color="#4d99ea" stop-opacity="1"/>
			<stop offset="0.8" stop-color="#5a9eee" stop-opacity="1"/>
			<stop offset="1" stop-color="#5ea0ef" stop-opacity="1"/>
		</linearGradient>
	</defs>
	<g>
		<title>Page-1</title>
		<g id="group19509-1" transform="translate(31.1071,-34.0157)">
			<title>Intune Device Enrolment.19509</title>
			<g id="group19510-2">
				<title>layer1</title>
				<g id="shape19511-3" transform="translate(0,-13.0279)">
					<title>rect25</title>
					<path d="M0 114.23 A1.8898 1.92064 -180 0 0 1.89 116.15 L50.65 116.15 A1.8898 1.92064 -180 0 0 52.54 114.23 L52.54
								 80.07 A1.8898 1.92064 -180 0 0 50.65 78.15 L1.89 78.15 A1.8898 1.92064 -180 0 0 -0 80.07 L0 114.23
								 Z" class="st1"/>
				</g>
				<g id="shape19512-5" transform="translate(3.0552,-16.0368)">
					<title>rect27</title>
					<path d="M0 115.19 a0.944902 0.960319 -180 0 0 0.94488 0.960297 L45.48 116.15 a0.944902 0.960319 -180 0 0 0.94488
								 -0.960297 L46.43 84.78 a0.944902 0.960319 -180 0 0 -0.94488 -0.960297 L0.94 83.82 a0.944902 0.960319
								 -180 0 0 -0.94488 0.960297 L0 115.19 Z" class="st2"/>
				</g>
				<g id="shape19513-9" transform="translate(32.441,0)">
					<title>rect29</title>
					<path d="M0 115.19 a0.944902 0.960319 -180 0 0 0.94488 0.960297 L23.31 116.15 a0.944902 0.960319 -180 0 0 0.94488
								 -0.960297 L24.25 75.97 a0.944902 0.960319 -180 0 0 -0.94488 -0.960297 L0.94 75.01 a0.944902 0.960319
								 -180 0 0 -0.94488 0.960297 L0 115.19 Z" class="st3"/>
				</g>
				<g id="shape19514-13" transform="translate(41.7951,-38.9881)">
					<title>rect31</title>
					<path d="M-0 115.79 a0.346464 0.352117 -180 0 0 0.346456 0.352109 L5.23 116.15 a0.346464 0.352117 -180 0 0 0.346456
								 -0.352109 L5.57 115.73 a0.346464 0.352117 -180 0 0 -0.346456 -0.352109 L0.35 115.38 a0.346464 0.352117
								 -180 0 0 -0.346456 0.352109 L0 115.79 Z" class="st4"/>
				</g>
				<g id="shape19515-15" transform="translate(34.7402,-4.60941)">
					<title>rect33</title>
					<path d="M0 115.7 a0.440954 0.448149 -180 0 0 0.440944 0.448138 L19.24 116.15 a0.440954 0.448149 -180 0 0 0.440944
								 -0.448138 L19.68 83.53 a0.440954 0.448149 -180 0 0 -0.440944 -0.448138 L0.44 83.08 a0.440954 0.448149
								 -180 0 0 -0.440944 0.448138 L0 115.7 Z" class="st5"/>
				</g>
				<g id="shape19516-17" transform="translate(23.5591,-49.0711)">
					<title>rect35</title>
					<path d="M-0 115.79 a0.346464 0.352117 -180 0 0 0.346456 0.352109 L5.23 116.15 a0.346464 0.352117 -180 0 0 0.346456
								 -0.352109 L5.57 115.73 a0.346464 0.352117 -180 0 0 -0.346456 -0.352109 L0.35 115.38 a0.346464 0.352117
								 -180 0 0 -0.346456 0.352109 L0 115.79 Z" class="st4"/>
				</g>
				<g id="shape19517-19" transform="translate(43.2127,-0.896177)">
					<title>rect41</title>
					<path d="M0 115.51 a0.629934 0.640213 -180 0 0 0.62992 0.640198 L2.08 116.15 a0.629934 0.640213 -180 0 0 0.62992
								 -0.640198 L2.71 114.45 a0.629934 0.640213 -180 0 0 -0.62992 -0.640198 L0.63 113.81 a0.629934 0.640213
								 -180 0 0 -0.62992 0.640198 L0 115.51 Z" class="st4"/>
				</g>
				<g id="shape19518-21" transform="translate(34.7402,-4.60942)">
					<title>rect30</title>
					<path d="M0 115.69 a0.45115 0.458511 -180 0 0 0.45114 0.458501 L19.16 116.15 a0.45115 0.458511 -180 0 0 0.45114
								 -0.458501 L19.61 83.67 a0.45115 0.458511 -180 0 0 -0.45114 -0.458501 L0.45 83.21 a0.45115 0.458511
								 -180 0 0 -0.45114 0.458501 L0 115.69 Z" class="st6"/>
				</g>
				<g id="shape19519-24" transform="translate(10.6389,-0.108042)">
					<title>rect37</title>
					<path d="M0 102.73 A13.1971 13.4125 -180 0 0 13.2 116.15 L13.32 116.15 A13.1971 13.4125 -180 0 0 26.52 102.73
								 L26.52 102.61 A13.1971 13.4125 -180 0 0 13.32 89.19 L13.2 89.19 A13.1971 13.4125 -180 0 0 -0 102.61
								 L0 102.73 Z" class="st7"/>
				</g>
				<g id="shape19520-26" transform="translate(14.419,-4.07698)">
					<title>path39</title>
					<path d="M17.45 104.88 L11.15 104.88 L11.15 98.48 A1.48031 1.50446 -180 0 0 9.73 97.16 L9.23 97.16 A1.48031 1.50446
								 -180 0 0 7.75 98.67 L7.75 105.07 L1.45 105.07 A1.48031 1.50446 -180 0 0 -0 106.58 L0 106.77 A1.48031
								 1.50446 -180 0 0 1.45 108.27 L7.75 108.27 L7.75 114.67 A1.48031 1.50446 -180 0 0 9.23 116.15 L9.73
								 116.15 A1.48031 1.50446 -180 0 0 11.21 114.67 L11.21 108.27 L17.51 108.27 A1.48031 1.50446 -180
								 0 0 18.99 106.77 L18.99 106.26 A1.48031 1.50446 -180 0 0 17.45 104.88 L17.45 104.88 Z" class="st8"/>
				</g>
			</g>
		</g>
	</g>
</svg>
